images/GPO.svg

<svg height="250" viewBox="0 0 250 250" width="250" xmlns="http://www.w3.org/2000/svg"><path d="m242.402344 124.109375c0 65.316406-52.777344 118.265625-117.882813 118.265625-65.109375 0-117.886719-52.949219-117.886719-118.265625s52.777344-118.269531 117.886719-118.269531c65.105469 0 117.882813 52.953125 117.882813 118.269531zm0 0" fill="#24262e"/><g fill="#f0ce0e"><path d="m16.621094 119.042969h-16.332032c2.8125-64.269531 54.234376-115.855469 118.292969-118.675781v16.382812c-55.042969 2.792969-99.179687 47.070312-101.960937 102.292969zm0 0"/><path d="m247.929688 119.042969h-16.328126c-2.757812-54.691407-46.082031-98.621094-100.382812-102.175781v-16.425782c63.324219 3.59375 113.921875 54.859375 116.710938 118.601563zm0 0"/><path d="m118.582031 248.808594c-63.53125-2.800782-114.632812-53.5625-118.214843-117.09375h16.371093c3.542969 54.476562 47.332031 97.945312 101.84375 100.710937zm0 0"/><path d="m131.21875 248.730469v-16.425781c53.773438-3.519532 96.753906-46.640626 100.261719-100.589844h16.375c-3.550781 63.003906-53.835938 113.453125-116.636719 117.015625zm0 0"/></g><path d="m242.445312 124.144531h-3.503906c-.003906 31.695313-12.800781 60.375-33.503906 81.144531-20.707031 20.769532-49.292969 33.613282-80.886719 33.613282-31.589843 0-60.175781-12.84375-80.882812-33.613282-20.703125-20.769531-33.5-49.449218-33.503907-81.144531.003907-31.699219 12.800782-60.375 33.503907-81.148437 11.808593-11.84375 26.179687-21.109375 42.210937-26.886719 12.078125-4.351563 25.097656-6.726563 38.671875-6.726563 31.59375.003907 60.179688 12.84375 80.886719 33.613282 20.703125 20.773437 33.5 49.449218 33.503906 81.148437h3.503906c0-65.324219-52.78125-118.273437-117.894531-118.277343-65.109375.003906-117.890625 52.953124-117.890625 118.277343 0 65.320313 52.78125 118.273438 117.890625 118.273438 65.113281 0 117.894531-52.953125 117.894531-118.273438zm0 0" fill="#24262e"/><path d="m71.828125 118.410156c-1.324219.003906-2.59375.535156-3.53125 1.472656-.9375.941407-1.464844 2.214844-1.46875 3.542969v14.109375c.050781 3.335938.351563 6.664063.898437 9.953125 0 0 1.8125 9.972657 7.375 16.152344 5.65625 6.09375 17.21875 8.171875 17.21875 8.171875 3.285157.542969 6.601563.835938 9.925782.886719h47.097656c3.320312-.058594 6.632812-.390625 9.898438-.996094 0 0 8.617187-1.753906 13.644531-6.765625 5.066406-4.941406 6.671875-13.207031 6.671875-13.207031.582031-3.285157.898437-6.609375.957031-9.941407v-18.363281c-.003906-1.328125-.535156-2.601562-1.46875-3.542969-.9375-.9375-2.207031-1.46875-3.53125-1.472656h-34.371094c-1.425781.066406-2.804687.554688-3.949219 1.414063-1.148437.855469-2.011718 2.039062-2.480468 3.394531l-1.777344 5.972656c-.792969 2.648438.8125 4.808594 3.566406 4.808594h18.800782c2.75 0 5 1.921875 5 4.273438 0 2.347656-.265626 6.519531-.59375 9.253906-.265626 1.539062-.964844 2.972656-2.015626 4.125-1.066406 1.160156-2.480468 1.9375-4.027343 2.222656-3.300781.425781-6.621094.660156-9.949219.703125h-35.414062c-3.324219-.054687-6.640626-.355469-9.917969-.90625-2.492188-.570313-4.792969-1.789063-6.664063-3.539063-1.867187-1.84375-3.164062-4.1875-3.734375-6.753906-.535156-3.292968-.824219-6.621094-.875-9.957031v-10c-.003906-1.328125-.53125-2.601563-1.46875-3.539063-.933593-.941406-2.203125-1.46875-3.527343-1.472656zm0 0" fill="#f0ce0e"/><path d="m72.0625 94.296875c-1.320312 2.421875-.148438 4.402344 2.605469 4.402344h91c1.429687-.066407 2.808593-.554688 3.960937-1.40625 1.152344-.855469 2.027344-2.03125 2.507813-3.386719l2.398437-7.835938c.808594-2.636718-.777344-4.792968-3.523437-4.792968h-68.519531c-3.324219.050781-6.640626.347656-9.925782.882812 0 0-11.816406 2.125-17.3125 8.042969-1.203125 1.246094-2.273437 2.621094-3.191406 4.09375zm0 0" fill="#f0ce0e"/></svg>

<svg xmlns="http://www.w3.org/2000/svg" xmlns:xlink="http://www.w3.org/1999/xlink" width="250px" height="250px" viewBox="0 0 250 250" version="1.1">
<g id="surface1">
<path style=" stroke:none;fill-rule:nonzero;fill:rgb(14.117648%,14.901961%,18.039216%);fill-opacity:1;" d="M 242.402344 124.109375 C 242.402344 189.425781 189.625 242.375 124.519531 242.375 C 59.410156 242.375 6.632812 189.425781 6.632812 124.109375 C 6.632812 58.792969 59.410156 5.839844 124.519531 5.839844 C 189.625 5.839844 242.402344 58.792969 242.402344 124.109375 Z M 242.402344 124.109375 "/>
<path style=" stroke:none;fill-rule:nonzero;fill:rgb(94.117647%,80.784315%,5.490196%);fill-opacity:1;" d="M 16.621094 119.042969 L 0.289062 119.042969 C 3.101562 54.773438 54.523438 3.1875 118.582031 0.367188 L 118.582031 16.75 C 63.539062 19.542969 19.402344 63.820312 16.621094 119.042969 Z M 16.621094 119.042969 "/>
<path style=" stroke:none;fill-rule:nonzero;fill:rgb(94.117647%,80.784315%,5.490196%);fill-opacity:1;" d="M 247.929688 119.042969 L 231.601562 119.042969 C 228.84375 64.351562 185.519531 20.421875 131.21875 16.867188 L 131.21875 0.441406 C 194.542969 4.035156 245.140625 55.300781 247.929688 119.042969 Z M 247.929688 119.042969 "/>
<path style=" stroke:none;fill-rule:nonzero;fill:rgb(94.117647%,80.784315%,5.490196%);fill-opacity:1;" d="M 118.582031 248.808594 C 55.050781 246.007812 3.949219 195.246094 0.367188 131.714844 L 16.738281 131.714844 C 20.28125 186.191406 64.070312 229.660156 118.582031 232.425781 Z M 118.582031 248.808594 "/>
<path style=" stroke:none;fill-rule:nonzero;fill:rgb(94.117647%,80.784315%,5.490196%);fill-opacity:1;" d="M 131.21875 248.730469 L 131.21875 232.304688 C 184.992188 228.785156 227.972656 185.664062 231.480469 131.714844 L 247.855469 131.714844 C 244.304688 194.71875 194.019531 245.167969 131.21875 248.730469 Z M 131.21875 248.730469 "/>
<path style=" stroke:none;fill-rule:nonzero;fill:rgb(14.117648%,14.901961%,18.039216%);fill-opacity:1;" d="M 242.445312 124.144531 L 238.941406 124.144531 C 238.9375 155.839844 226.140625 184.519531 205.4375 205.289062 C 184.730469 226.058594 156.144531 238.902344 124.550781 238.902344 C 92.960938 238.902344 64.375 226.058594 43.667969 205.289062 C 22.964844 184.519531 10.167969 155.839844 10.164062 124.144531 C 10.167969 92.445312 22.964844 63.769531 43.667969 42.996094 C 55.476562 31.152344 69.847656 21.886719 85.878906 16.109375 C 97.957031 11.757812 110.976562 9.382812 124.550781 9.382812 C 156.144531 9.386719 184.730469 22.226562 205.4375 42.996094 C 226.140625 63.769531 238.9375 92.445312 238.941406 124.144531 L 242.445312 124.144531 C 242.445312 58.820312 189.664062 5.871094 124.550781 5.867188 C 59.441406 5.871094 6.660156 58.820312 6.660156 124.144531 C 6.660156 189.464844 59.441406 242.417969 124.550781 242.417969 C 189.664062 242.417969 242.445312 189.464844 242.445312 124.144531 Z M 242.445312 124.144531 "/>
<path style=" stroke:none;fill-rule:nonzero;fill:rgb(94.117647%,80.784315%,5.490196%);fill-opacity:1;" d="M 71.828125 118.410156 C 70.503906 118.414062 69.234375 118.945312 68.296875 119.882812 C 67.359375 120.824219 66.832031 122.097656 66.828125 123.425781 L 66.828125 137.535156 C 66.878906 140.871094 67.179688 144.199219 67.726562 147.488281 C 67.726562 147.488281 69.539062 157.460938 75.101562 163.640625 C 80.757812 169.734375 92.320312 171.8125 92.320312 171.8125 C 95.605469 172.355469 98.921875 172.648438 102.246094 172.699219 L 149.34375 172.699219 C 152.664062 172.640625 155.976562 172.308594 159.242188 171.703125 C 159.242188 171.703125 167.859375 169.949219 172.886719 164.9375 C 177.953125 159.996094 179.558594 151.730469 179.558594 151.730469 C 180.140625 148.445312 180.457031 145.121094 180.515625 141.789062 L 180.515625 123.425781 C 180.511719 122.097656 179.980469 120.824219 179.046875 119.882812 C 178.109375 118.945312 176.839844 118.414062 175.515625 118.410156 L 141.144531 118.410156 C 139.71875 118.476562 138.339844 118.964844 137.195312 119.824219 C 136.046875 120.679688 135.183594 121.863281 134.714844 123.21875 L 132.9375 129.191406 C 132.144531 131.839844 133.75 134 136.503906 134 L 155.304688 134 C 158.054688 134 160.304688 135.921875 160.304688 138.273438 C 160.304688 140.621094 160.039062 144.792969 159.710938 147.527344 C 159.445312 149.066406 158.746094 150.5 157.695312 151.652344 C 156.628906 152.8125 155.214844 153.589844 153.667969 153.875 C 150.367188 154.300781 147.046875 154.535156 143.71875 154.578125 L 108.304688 154.578125 C 104.980469 154.523438 101.664062 154.222656 98.386719 153.671875 C 95.894531 153.101562 93.59375 151.882812 91.722656 150.132812 C 89.855469 148.289062 88.558594 145.945312 87.988281 143.378906 C 87.453125 140.085938 87.164062 136.757812 87.113281 133.421875 L 87.113281 123.421875 C 87.109375 122.09375 86.582031 120.820312 85.644531 119.882812 C 84.710938 118.941406 83.441406 118.414062 82.117188 118.410156 Z M 71.828125 118.410156 "/>
<path style=" stroke:none;fill-rule:nonzero;fill:rgb(94.117647%,80.784315%,5.490196%);fill-opacity:1;" d="M 72.0625 94.296875 C 70.742188 96.71875 71.914062 98.699219 74.667969 98.699219 L 165.667969 98.699219 C 167.097656 98.632812 168.476562 98.144531 169.628906 97.292969 C 170.78125 96.4375 171.65625 95.261719 172.136719 93.90625 L 174.535156 86.070312 C 175.34375 83.433594 173.757812 81.277344 171.011719 81.277344 L 102.492188 81.277344 C 99.167969 81.328125 95.851562 81.625 92.566406 82.160156 C 92.566406 82.160156 80.75 84.285156 75.253906 90.203125 C 74.050781 91.449219 72.980469 92.824219 72.0625 94.296875 Z M 72.0625 94.296875 "/>
</g>
</svg>
